X:28
T:Phil Murphy's in A
S:Altan - The Blue Idol Track 6
M:4/4
F:http://blackrosetheband.googlepages.com/ABCTUNES.ABC May 2009
R:reel
K:A
e3f ec(A2 | A)ccc BAFA | ceef ecAB | cBBA B3e |
ceee feec | efec BAFA | ~c3A BAFA |1 EAAB ABcd :|2 EAAG Aced|
|:ceec dffc | e2ef ecAB | ceec defg | afec BcAe |
ceee feec | efec BAFA | ~c3A BAFA |1 EAAG Aced :|2 EAAG ABcd |
